X:1
T:15 - Menando un giorno
T:Luca Marenzio (1556 - 1599) 1º Libro di Madrigali a quattro voci (Venetia, 1592)
T:15 - Menando un giorno
T:© 2018 Ed. Marcos Mato
T:© 2018 Ed. Marcos Mato
T:© 2018 Ed. Marcos Mato
T:© 2018 Ed. Marcos Mato
C:Luca Marenzio (1556 - 1599)
C:1º Libro di Madrigali a quattro voci (Venetia, 1592)
Z:© 2018 Ed. Marcos Mato
%%score [ 1 2 3 4 ]
L:1/8
M:4/4
K:C
V:1 alto1 nm="Soprano" snm="Sop."
V:2 alto nm="Alto" snm="A."
V:3 tenor transpose=-12 nm="Tenor" snm="T."
V:4 bass nm="Basso" snm="Bajo"
V:1
 G4 | [De]2 |[M:4/2] z4 G4 G2 A2 B2 c2 | d6 c2 A2 B2 c4- | c2 BA B4 c4 z4 | z16 | %6
w: ||Me- nan- do\_un gior- no|gl'A- gni pres- so\_un fiu-|* * * * me||
 z2 G2 B2 c2 d2 B2 e3 e | e2 d2 ^c4 d8 | z8 z4 z2 d2 | c2 c2 c2 c2 B2 AG A2 B2 | c2 A2 c8 B4 | %11
w: vi- di\_un bel lu- me\_in mez- zo|di quell' on- de|che|con due bion- de trec- * * * cie\_al|l'hor mi strin- se|
 z2 G2 E3 F G4 G4 | z2 G2 A8 G2 G2- | G2 G2 A4 B8 | d4 c2 c2 B4 A4 | z4 z2 G2 F2 F2 E4 | D4 G8 F4 | %17
w: et mi di- pin- se|un vol- to\_in mez'|_ al co- re|che di co- lo- re|che di co- lo-|re\_a- van- za|
 E4 D4 E8 | E8 z2 A2 A2 E2 | G4 A4 A6 A2 | A4 G4 G8 | ^F8 G4 A4 | B4 c4 d4 e3 d | c2 c2 B4 c4 G4 | %24
w: lat- te\_e ro-|se poi si nas-|co- se\_in mo- di|den- tr'a l'al-|ma che d'al-|tra sal- ma non m'a-|grav' il pe- so il|
 G4 E4 z2 A2 A2 E2 | G4 A4 A6 A2 | A4 G4 G8 | ^F8 G4 A4 | B4 c4 d4 e3 d | c2 c2 B4 c8 | z8 z4 G4 | %31
w: pe- so poi si nas-|co- se\_in mo- do|den- tro\_a l'al-|ma che d'al-|tra sal- ma non m'ag-|grav' il pe- so|che|
 A4 B4 c4 G4 | z4 G4 A4 B4 | c4 d4 e3 d c2 c2 | B4 c6 G2 G4 | G16 |] %36
w: d'al- tra sal- ma|che d'al- tra|sal- ma non m'ag- grav' il|pe- so il pe-|so.|
V:2
 C4 | [G,A]2 |[M:4/2] C4 C2 D2 E2 F2 G4- | G2 F2 D2 E2 F6 E2 | D8 C4 z4 | z16 | %6
w: ||Me- nand' un gior- no gl'A-|* gni pres- so\_un fiu- *|* me||
 z2 D2 G2 E2 D2 G2 G3 A | G2 F2 E4 F8 | z8 z4 z2 D2 | E2 F2 E2 F2 G2 FE D2 G2 | E2 F2 E3 F G4 G4 | %11
w: vi- di\_un bel lu- me\_in mez- zo|di quell' on- de|che|con due bion- de trec- * * * cie\_all'|hor mi strin- * * se|
 C4 C3 D E4 E4 | z2 E2 F8 E2 D2- | D2 G2 ^F4 G8 | z2 D2 E2 =F2 G4 ^F4 | z4 z2 G,2 A,2 B,2 C4 | %16
w: et mi di- pin- se|un volt' in mez'|_ al co- re|che di co- lo- re|che di co- lo-|
 B,4 z2 G,2 D6 C2 | B,4 A,4 B,8 | C8 z2 F2 F2 C2 | D4 F4 F4 C2 F2- | F2 E2 D6 CB, ^C4 | %21
w: re a- van- za|lat- te\_e ro-|se poi si nas-|co- se\_in mo- do den-|* tr'a l'al- * * *|
 D8 z2 G2 F3 E | D2 D2 z4 z2 D2 G2 E2- | E2 ^F2 G4 G4 E4 | D4 C2 E2 =F6 C2 | D4 F4 F4 C2 F2- | %26
w: ma che d'al- tra|sal- ma non m'ag- gra-|* va\_il pe- so il|pe- so poi si nas-|co- se\_in mo- do den-|
 F2 E2 D6"^#" ^CB, C4 | D8 z2 G2 F3 E | D2 D2 z4 z2 D2 G2 E2- | E2 E2 G4 G8 | G,4 A,4 B,4 C4- | %31
w: * tro\_a l'al- * * *|ma che d'al- tra|sal- ma non m'ag- grav'|_ il pe- so|che d'al- tra sal-|
 C4 D4 F2 C2 E2 E2 | E4 B,2 G2 F3 E D2 D2 | z4 z2 D2 G2 E4 ^F2 | G2 G2 G3 G =F2 E2 D4 | E16 |] %36
w: * ma non m'ag- grav' il|pe- so che d'al- tra sal- ma|non m'ag- grav' il|pe- so non m'ag- grav' il pe-|so.|
V:3
 C4 | [E,E]2 |[M:4/2] z16 | z16 | z8 z2 C2 C2 C2 | B,2 G,2 C3 C C2 B,2 A,4 | B,4 z4 z2 G,2 C3 A, | %7
w: ||||Vi- di\_un bel|lu- me\_in mez- zo di quell' on-|de in mez- zo|
 C2 D2 A,4 D4 z2 D2 | C2 C2 C2 C2 B,2 A,G, A,2 B,2 | C2 A,2 C4 D4 z2 D2 | C2 C2 C3 D E4 D4 | %11
w: di quell' on- de che|con due bion- de trec- * * * cie\_all'|hor mi strin- se all'|hor mi strin- * * se|
 z8 z2 G,2 E,3 F, | G,2 C2 C8 C2 B,2- | B,2 B,2 D4 D8 | z8 z4 D4 | C2 C2 B,4 D4 z4 | %16
w: et mi di-|pin- se\_un volt' in mez'|_ al co- re|che|di co- lo- re|
 z2 G,2 B,8 A,4 | ^G,4 A,8 G,4 | A,8 z2 C2 C2 C2 | B,4 C4 C4 A,2 D2- | D2 C2 B,3 A, G,8 | A,8 z8 | %22
w: a- van- za|lat- te\_e ro-|se poi si nas-|co- se\_in mo- do den-|* tr'a l'al- * *|ma|
 G,4 A,4 B,4 C4- | C4 D4 E3 D C2 C2 | B,4 C4 z2 C2 C2 C2 | B,4 C4 C4 A,2 D2- | D2 C2 B,3 A, G,8 | %27
w: che d'al- tra sal-|* ma non m'ag- grav' il|pe- so poi si nas-|co- se\_in mo- do den-|* tro\_a l'al- * *|
 A,8 z8 | G,4 A,4 B,4 C4- | C4 D4 E3 D C2 C2 | B,4 C4 z8 | z4 G,4 A,4 B,4 | C4 D4 z4 G,4 | %33
w: ma|che d'al- tra sal-|* ma non m'ag- grav' il|pe- so|che d'al- tra|sal- ma che|
 A,4 B,4 C8 | D4 E3 D C2 C2 B,4 | C16 |] %36
w: d'al- tra sal-|ma non m'ag- grav' il pe-|so.|
V:4
 C,4 | [F,,C]2 |[M:4/2] z16 | z16 | z8 z2 C,2 E,2 F,2 | G,2 E,2 A,3 A, A,2 G,2 ^F,4 | G,4 z4 z8 | %7
w: ||||Vi- di\_un bel|lu- me\_in mez- zo di quell' on-|de|
 z8 z4 D,4 | E,2 F,2 E,2 F,2 G,2 F,E, D,2 G,2 | C,2 F,2 A,4 G,4 z2 G,2 | A,2 F,2 A,4 G,8 | %11
w: che|con due bion- de trec- * * * cie\_all'|hor mi strin- se all'|hor mi strin- se|
 z8 z2 C,2 C,3 D, | E,2 C,2 F,8 C,2 G,2- | G,2 E,2 D,4 G,,8 | z8 z4 z2 D,2 | %15
w: et mi di-|pin- se\_un vol- to\_in me-|* zo\_al co- re|che|
 E,2 F,2 G,4 D,4 z2 C,2 | G,8 D,8 | E,4 F,4 E,8 | A,,4 A,4 F,6 A,2 | G,4 F,4 F,6 D,2 | %20
w: di co- lo- re a-|van- za|lat- te\_e ro-|se poi si nas-|co- se\_in mo- do|
 F,4 G,4 E,8 | D,8 z8 | z2 G,2 F,3 E, D,2 D,2 C,3 B,, | A,,2 A,2 G,4 C,8 | z4 z2 A,2 F,6 A,2 | %25
w: den- tr'a l'al-|ma|che d'al- tra sal- ma non m'ag-|grav' il pe- so|poi si nas-|
 G,4 F,4 F,6 D,2 | F,4 G,4 E,8 | D,8 z8 | z2 G,2 F,3 E, D,2 D,2 C,3 B,, | A,,2 A,2 G,4 C,8 | %30
w: co- se\_in mo- do|den- tro\_a l'al-|ma|che d'al- tra sal- ma non m'ag-|gra- va\_il pe- so|
 z2 G,2 F,3 E, D,2 D,2 C,3 B,, | A,,2 A,,2 G,,4 F,,2 F,2 E,3 D, | C,4 G,,4 z4 z2 G,2 | %33
w: che d'al- tra sal- ma non m'ag-|grav' il pe- so che d'al- tra|sal- ma che|
 F,3 E, D,2 D,2 C,3 B,, A,,2 A,2 | G,2 G,2 C3 B, A,2 C2 G,4 | C,16 |] %36
w: d'al- tra sal- ma non m'ag- grav' il|pe- so non m'ag- grav' il pe-|so.|

